X:1
T: Andy Duffy's Jig
N:
C:
S:
A:
O:
R:
M:6/8
K:G
I:speed 180
%W:
% voice 1 (1 lines, 45 notes)
K:G
M:6/8
L:1/16
G2 E2 D2 D2 E2 G2 d2 g2 e2 d2 B2 G2 c4 A2 B2 A2 G2 A2 G2 E2 E4 D2 |G2 E2 D2 D2 E2 G2 B2 g2 e2 d2 B2 G2 c4 A2 B2 d2 B2 A2 G2 F2 G2 B2 d2 |
%W:
% voice 1 (1 lines, 45 notes)
G2 E2 D2 D2 E2 G2 d2 g2 e2 d2 B2 G2 c4 A2 B2 A2 G2 A2 G2 E2 E4 D2 |G2 E2 D2 D2 E2 G2 B2 g2 e2 d2 B2 G2 c4 A2 B2 d2 B2 A2 G2 F2 G2 B2 d2 |
%W:
% voice 1 (1 lines, 37 notes)
g6 G2 B2 d2 g6 e2 d2 B2 c4 A2 B2 A2 G2 A2 G2 E2 E4 D2 |g6 G2 B2 d2 g6 e2 d2 B2 c4 A2 B2 d2 B2 A2 G2 F2 G2 B2 d2 |
%W:
% voice 1 (1 lines, 39 notes)
g6 G2 B2 d2 g6 e2 d2 B2 c4 A2 B2 A2 G2 A2 G2 E2 E4 D2 |G2 E2 D2 D2 E2 G2 d2 g2 e2 d2 B2 G2 c4 A2 B2 d2 B2 A2 G2 E2 G6 ||
